Origami/32x32/apps/yast-modem.svg

<svg width="32" height="32" version="1" xmlns="http://www.w3.org/2000/svg">
 <rect x="2" y="17" width="28" height="14" rx="2.1" ry="2.1" style="opacity:.2"/>
 <rect transform="rotate(90)" x="2" y="-9" width="17" height="3" ry="1.5" style="fill:#8e8e8e"/>
 <rect x="2" y="16" width="28" height="14" rx="2.1" ry="2.1" style="fill:#4f4f4f"/>
 <circle cx="24" cy="24" r="3" style="opacity:.2"/>
 <circle cx="24" cy="23" r="3" style="fill:#c0f957"/>
 <circle cx="16" cy="24" r="3" style="opacity:.2"/>
 <circle cx="16" cy="23" r="3" style="fill:#91af5b"/>
 <path d="m7.5 2c-0.831 0-1.5 0.669-1.5 1.5v1c0-0.831 0.669-1.5 1.5-1.5s1.5 0.669 1.5 1.5v-1c0-0.831-0.669-1.5-1.5-1.5z" style="fill:#ffffff;opacity:.1"/>
 <path d="m4.0996094 16c-1.1634 0-2.0996094 0.936209-2.0996094 2.099609v1c0-1.1634 0.9362094-2.099609 2.0996094-2.099609h23.800782c1.1634 0 2.099609 0.936209 2.099609 2.099609v-1c0-1.1634-0.936209-2.099609-2.099609-2.099609h-23.800782z" style="fill:#ffffff;opacity:.1"/>
</svg>

<svg xmlns="http://www.w3.org/2000/svg" width="32" height="32" version="1">
 <rect style="opacity:0.2" width="28" height="14" x="2" y="17" rx="2.1" ry="2.1"/>
 <rect style="fill:#8e8e8e" width="17" height="3" x="2" y="-9" ry="1.5" transform="matrix(0,1,-1,0,0,0)"/>
 <rect style="fill:#4f4f4f" width="28" height="14" x="2" y="16" rx="2.1" ry="2.1"/>
 <circle style="opacity:0.2" cx="24" cy="24" r="3"/>
 <circle style="fill:#c0f957" cx="24" cy="23" r="3"/>
 <circle style="opacity:0.2" cx="16" cy="24" r="3"/>
 <circle style="fill:#91af5b" cx="16" cy="23" r="3"/>
 <path style="fill:#ffffff;opacity:0.1" d="M 7.5 2 C 6.669 2 6 2.669 6 3.5 L 6 4.5 C 6 3.669 6.669 3 7.5 3 C 8.331 3 9 3.669 9 4.5 L 9 3.5 C 9 2.669 8.331 2 7.5 2 z"/>
 <path style="fill:#ffffff;opacity:0.1" d="M 4.0996094 16 C 2.9362094 16 2 16.936209 2 18.099609 L 2 19.099609 C 2 17.936209 2.9362094 17 4.0996094 17 L 27.900391 17 C 29.063791 17 30 17.936209 30 19.099609 L 30 18.099609 C 30 16.936209 29.063791 16 27.900391 16 L 4.0996094 16 z"/>
</svg>
